img/windows.svg

<svg width="33" height="29" viewBox="0 0 33 29" fill="none" xmlns="http://www.w3.org/2000/svg">
<path fill-rule="evenodd" clip-rule="evenodd" d="M12.2646 0.013127C10.5922 0.145925 9.11759 0.518494 7.00865 1.34108C6.91009 1.37951 6.83397 1.42856 6.81895 1.46332C6.80517 1.49525 6.09702 3.92887 5.24531 6.87138C4.3936 9.8139 3.69043 12.2426 3.68272 12.2685C3.67201 12.3044 3.7733 12.2738 4.11301 12.1382C5.74724 11.486 7.31402 11.05 8.66412 10.8715C8.937 10.8354 9.2368 10.823 9.84553 10.8224C10.5587 10.8217 10.7161 10.8298 11.0973 10.8869C12.5902 11.1103 13.866 11.6404 15.578 12.7489C15.7604 12.8671 15.9187 12.9637 15.9296 12.9637C15.9467 12.9637 19.089 2.19795 19.0867 2.14742C19.0857 2.12613 18.3528 1.65424 17.9466 1.41338C17.5461 1.17585 16.7968 0.806751 16.3855 0.644346C15.5163 0.301132 14.6728 0.102229 13.7554 0.0241071C13.4482 -0.00205475 12.5401 -0.00874928 12.2646 0.013127ZM19.1999 8.68507C18.3422 11.6469 17.6359 14.1016 17.6303 14.1401C17.6213 14.2029 17.6618 14.2366 18.023 14.4659C19.3588 15.3142 20.3705 15.7736 21.5539 16.0693C23.4461 16.542 25.5156 16.4008 27.8462 15.6398C28.3515 15.4748 29.3357 15.0983 29.7008 14.9303L29.8658 14.8543L31.4372 9.43612C32.3015 6.4561 33.0047 4.01405 33 4.00932C32.9952 4.00461 32.8784 4.04632 32.7403 4.10203C32.6022 4.15774 32.2551 4.2885 31.9689 4.39258C29.2982 5.36377 27.0133 5.63808 25.0083 5.22825C23.7531 4.97168 22.5122 4.42454 21.0947 3.50277C20.9233 3.39126 20.7776 3.30003 20.7711 3.30003C20.7646 3.30003 20.0575 5.72328 19.1999 8.68507ZM8.71307 12.8269C7.13498 12.9079 5.31192 13.355 3.39322 14.1315L3.12929 14.2383L1.56206 19.6863C0.70008 22.6827 -0.00283243 25.1375 8.58186e-06 25.1414C0.00287773 25.1452 0.238316 25.0586 0.523205 24.9489C2.91883 24.0263 5.03645 23.6318 6.81313 23.7772C8.53808 23.9184 9.97276 24.4593 11.8391 25.6719C12.0382 25.8013 12.2043 25.9034 12.2082 25.8989C12.2121 25.8943 12.933 23.434 13.8102 20.4316C15.1231 15.9379 15.3986 14.9664 15.3679 14.9377C15.2997 14.8738 14.4569 14.3434 14.132 14.1599C12.6482 13.3221 11.2477 12.8897 9.84553 12.8363C9.64441 12.8287 9.39758 12.8188 9.29702 12.8143C9.19646 12.8099 8.93368 12.8155 8.71307 12.8269ZM15.5038 21.4177C14.6417 24.3862 13.9373 26.8275 13.9383 26.8429C13.9426 26.906 15.2678 27.7138 15.8197 27.9897C18.3907 29.2755 21.1028 29.3317 24.5991 28.1713C25.0177 28.0324 25.9442 27.687 26.1081 27.6088C26.1846 27.5723 26.2327 27.4138 27.7576 22.1693C28.6215 19.1982 29.3221 16.7611 29.3144 16.7535C29.3068 16.7459 29.1003 16.8179 28.8556 16.9135C27.2571 17.5379 25.6857 17.9434 24.2756 18.0952C23.8377 18.1424 22.5658 18.1425 22.18 18.0954C20.5337 17.8944 19.158 17.3654 17.5321 16.3082C17.335 16.1801 17.1507 16.0629 17.1225 16.0479C17.075 16.0226 16.9522 16.4303 15.5038 21.4177Z" fill="#AAAAAA"/>
</svg>

<svg width="33" height="29" fill="none" xmlns="http://www.w3.org/2000/svg"><path fill-rule="evenodd" clip-rule="evenodd" d="M12.265.013c-1.673.133-3.147.505-5.256 1.328-.099.039-.175.088-.19.122-.014.032-.722 2.466-1.574 5.408l-1.562 5.397c-.011.036.09.006.43-.13 1.634-.652 3.201-1.088 4.551-1.267.273-.036.573-.048 1.182-.049.713 0 .87.008 1.251.065 1.493.223 2.769.753 4.481 1.862.182.118.34.215.352.215.017 0 3.159-10.766 3.157-10.817-.001-.02-.734-.493-1.14-.734a14 14 0 0 0-1.561-.769 9.096 9.096 0 0 0-2.63-.62 15.503 15.503 0 0 0-1.491-.01ZM19.2 8.685a854.877 854.877 0 0 0-1.57 5.455c-.009.063.032.097.393.326 1.336.848 2.348 1.308 3.53 1.603 1.893.473 3.963.332 6.293-.43.506-.164 1.49-.54 1.855-.709l.165-.076 1.571-5.418c.864-2.98 1.568-5.422 1.563-5.427a1.77 1.77 0 0 0-.26.093c-.138.056-.485.186-.771.29-2.67.972-4.956 1.246-6.96.836-1.256-.256-2.497-.803-3.914-1.725a5.93 5.93 0 0 0-.324-.203c-.006 0-.713 2.423-1.571 5.385ZM8.713 12.827c-1.578.08-3.401.528-5.32 1.305l-.264.106-1.567 5.448A1169.53 1169.53 0 0 0 0 25.141c.003.004.238-.082.523-.192 2.396-.923 4.513-1.317 6.29-1.172 1.725.141 3.16.682 5.026 1.895.2.13.365.231.37.227.003-.005.724-2.465 1.601-5.467 1.313-4.494 1.589-5.466 1.558-5.494-.068-.064-.911-.595-1.236-.778-1.484-.838-2.884-1.27-4.286-1.324-.202-.007-.448-.017-.549-.022-.1-.004-.363.002-.584.013Zm6.79 8.59a841.402 841.402 0 0 0-1.565 5.426c.005.063 1.33.87 1.882 1.147 2.57 1.286 5.283 1.342 8.78.181a26.555 26.555 0 0 0 1.508-.562c.077-.037.125-.195 1.65-5.44.864-2.97 1.564-5.408 1.556-5.416-.007-.007-.214.065-.458.16-1.599.625-3.17 1.03-4.58 1.182-.438.047-1.71.047-2.096 0-1.646-.2-3.022-.73-4.648-1.787a14.547 14.547 0 0 0-.41-.26c-.047-.025-.17.382-1.618 5.37Z" fill="#AAA"/></svg>
